X: 1
T:Flowers of Edinburgh
S:Toby A. Rider, Fiddle-L, 8/97
R:Reel
O:Scotland
O:Ireland
M:4/4
K:G
GE|\
D2DE G2GA|BGBd cBAG|FGFE DEFG|AFcF E2GE|\
D2DE G2GA|BABd ef(3gfe|
dcBA GFGA|B2G2 G2::\
Bd|\
g2g2 gbag|f2fe fagf|
edef gfed|B2ed e2ge|\
dBGB d3d|edef g2fe|dcBA GFGA|B2G2 G2:|
